X: 59
T:Sailor's Bonnet, The
M:C|
L:1/8
R:Reel
K:D
A2FA df~f2|dfef dBBd|A2FA dfef|dBAF ADDB|!
A2FA df~f2|afef dBBd|A2FA dfec|dBAF ADDg|!
|:faab afdf|afef dB~B2|fbba b2fa|b2af feea|!
bf~f2 af~f2|afef dBBd|A2FA dfec|1dBAF ADDg:|2dBAF ADDB|]!
